X:1
T:James Gibb editions
T:En la fuente del rosel - Vásquez
T:#
%%score [ 1 2 3 4 ]
L:1/8
Q:1/4=160
M:none
K:C
V:1 treble nm="Soprano" snm="S"
V:2 treble nm="Alto" snm="A"
V:3 treble-8 nm="Tenor" snm="T"
V:4 bass nm="Bass" snm="B"
V:1
"^En la fuente del rosel""^Juan Vásquez\n(c.1500-c.1560)" z16 | z8 z4 e4 | c2 c2 d4 c4 A4 | z16 | %4
w: |La-|van la ni- ña y~~el||
w: |El|a e- lla y~~e- lla||
 B4 c4 z4 e4 |[M:4/2] c2 c2 d4 c4 (A4- | A2 B2) (c8 B4) | c8 z8 | c4 c4 d4 d4 | e4 e4 c8 | %10
w: don- zel, La-|van la ni- ña y~~el|* * don\- *|zel.|En la fuen- te|del ro- sel|
w: a él *||||||
 z4 e4 c2 c2 d4 | c4 A4 B4 c4 | z4 e4 c2 c2 d4 | c4 A4 B4 c4 | (F4 G4) (A4 c4- | c4 B4) c16 || %16
w: La- van la ni-|ña y~~el don- zel,|La- van la ni-|ña y~~el don- zel,|y~~el * don\- *|* * zel.|
w: ||||||
 z16 | z16 | c4 c4 d4 d4 | e4 e2 e2 f8 | e16 | z16 | z16 | c4 c4 d4 d4 | e4 e2 e2 f8 | e16 | z16 | %27
w: ||En la fuen- te|de a- gua cla-|ra,|||En la fuen- te|de a- gua cla-|ra,||
w: ||Con sus ma- nos|la- van la ca-|ra,|||Con sus ma- nos|la- van la ca-|ra,||
 z16 | z8 z4 e4 | c2 c2 d4 c4 A4 | (B4 c4) z4 e4 | c2 c2 d4 c4 (A4- | A2 B2) (c4- c4 B4) | c8 z8 | %34
w: |La-|van la ni- ña y~~el|don- zel, La-|van la ni- ña y~~el|* * don\- * *|zel.|
w: |El|a e- lla y~~e- lla~~a|él * *||||
 c4 c4 d4 d4 | e4 e4 c8 | z4 e4 c2 c2 d4 | c4 A4 B4 c4 | z4 e4 c2 c2 d4 | c4 A4 B4 c4 | %40
w: En la fuen- te|del ro- sel|La- van la ni-|ña y~~el don- zel,|La- van la ni-|ña y~~el don- zel,|
w: ||||||
 (F4 G4) (A4 c4- | c4 B4) c16 |] %42
w: y~~el * don\- *|* * zel.|
w: ||
V:2
 z16 | z16 | z4 A4 F2 F2 G4 | F4 D4 E4 F4 | z4 A4 F2 F2 G4 |[M:4/2] F4 D4 (E4 F4) | C8 z8 | %7
w: ||La- van la ni-|ña y~~el don- zel,|La- van la ni-|ña y~~el don\- *|zel.|
w: ||El a e- lla|y~~e- lla a él||||
 z8 F4 F4 | G4 A8 B4 | c4 G4 z4 A4 | F2 F2 G4 F4 D4 | E4 F4 z4 A4 | F2 F2 G4 F4 D4 | E4 F4 z4 A4 | %14
w: En la|fuen- te del|ro- sel La-|van la ni- ña y~~el|don- zel, La-|van la ni- ña y~~el|don- zel, La-|
w: |||||||
 A2 A2 G4 F4 E4 | G8 G16 || z8 F4 F4 | G4 A4 G4 G2 G2 | G4 E4 z4 G4 | G4 G4 A8 | G16 | z8 F4 F4 | %22
w: van la ni- ña y~~el|don- zel.|En la|fuen- te de~a- gua *|cla- ra, de|a- gua cla-|ra,|En la|
w: ||Con sus|ma- nos la- van la|ca- ra, la-|van la ca-|ra,|Con sus|
 G4 A4 G4 G2 G2 | G4 E4 z4 G4 | G4 G4 A8 | G16 | z16 | z16 | z4 A4 F2 F2 G4 | F4 D4 (E4 F4) | %30
w: fuen- te de a- gua|cla- ra, de|a- gua cla-|ra,|||La- van la ni-|ña y~~el don- zel,|
w: ma- nos la- van la|ca- ra, la-|van la ca-|ra,|||El a e- lla|ye- lla~~a él *|
 z4 A4 F2 F2 G4 | F4 D4 (E4 F4) | C8 z8 | z8 F4 F4 | G4 A4- A4 B4 | c4 G4 z4 A4 | F2 F2 G4 F4 D4 | %37
w: La- van la ni-|ña y~~el don\- *|zel.|En la|fuen- te * del|ro- sel La-|van la ni- ña y~~el|
w: |||||||
 E4 F4 z4 A4 | F2 F2 G4 F4 D4 | E4 F4 z4 A4 | A2 A2 G4 F4 E4 | G8 G16 |] %42
w: don- zel, La-|van la ni- ña y~~el|don- zel, La-|van la ni- ña y~~el|don- zel.|
w: |||||
V:3
 c4 c4 d4 d4 | e4 e4 c8 | e4 c2 c2 d4 c4 | A4 B4 c8 | e4 c2 c2 d4 c4 | %5
w: En la fuen- te|del ro- sel|La- van la ni- ña|y~~el don- zel,|La- van la ni- ña|
w: El a e- lla|y~~e- lla~~a él||||
[M:4/2][K:treble-8] (A4 B4) (c4 d4 | f6 e2 d2 c2 d4) | c4 c2 c2 d4 d4 | e4 (f4- f2 e2 d4) | %9
w: y~~el * don\- *||zel. En la fuen- te|del ro\- * * *|
w: ||||
 c8 e4 c2 c2 | d4 c4 A4 B4 | c8 e4 c2 c2 | d4 c4 A4 B4 | c8 e4 c2 c2 | d4 G4 c8 | d8 c16 || z16 | %17
w: sel La- van la|ni- ña y~~el don-|zel, La- van la|ni- ña y~~el don-|zel, La- van la|ni- ña y~~el|don- zel.||
w: ||||||||
 c4 c4 d4 d4 | e4 A4 (B2 (c4 B2)) | c16- | c16 | z16 | c4 c4 d4 d4 | e4 A4 (B2 (c4 B2)) | c16- | %25
w: En la fuen- te|de~~a- gua cla\- * *|ra,|||En la fuen- te|de~a- gua cla\- * *|ra,|
w: Con sus ma- nos|la- van la ca\- *|ra,|||Con sus ma- nos|la- van la ca\- *|ra,|
 c16 | c4 c4 d4 d4 | e4 e4 c8 | e4 c2 c2 d4 c4 | A4 B4 c8 | e4 c2 c2 d4 c4 | (A4 B4) (c4 d4 | %32
w: |En la fuen- te|del ro- sel|La- van la ni- ña|y~~el don- zel,|La- van la ni- ña|y~~el * don\- *|
w: |El a e- lla|y~~e- lla~~a él|||||
 f6 e2 d2 c2 d4) | c4 c2 c2 d4 d4 | e4 (f4- f2 e2 d4) | c8 e4 c2 c2 | d4 c4 A4 B4 | c8 e4 c2 c2 | %38
w: |zel. En la fuen- te|del ro\- * * *|sel La- van la|ni- ña y~~el don-|zel, La- van la|
w: ||||||
 d4 c4 A4 B4 | c8 e4 c2 c2 | d4 G4 c8 | d8 c16 |] %42
w: ni- ña y~~el don-|zel, La- van la|ni- ña y~~el|don- zel.|
w: ||||
V:4
 z16 | z16 | z16 | z8 A,4 F,2 F,2 | G,4 F,4 D,4 (E,4 |[M:4/2] F,4 z4 z8 | F,4 F,4 G,4 G,4 | %7
w: |||La- van la|ni- ña y~el don-|zel,|En la fuen- te|
w: |||El a e-|lla y~~e- lla~~a él|||
 A,4 A,4 D,8 | z16 | z16 | z16 | A,4 F,2 F,2 G,4 F,4 | D,4 E,4 F,4 z4 | A,4 F,2 F,2 G,4 F,4 | %14
w: del ro- sel||||La- van la ni- ña|y~~el don- zel,|La- van la ni- ña|
w: |||||||
 D,4 E,4) (F,4 A,4 | G,8 C,16 || C4 C4 D4 D4 | E4 A,4 (B,2 C4) B,2 | C6 B,A, G,8 | C,8 F,8) | %20
w: y~~el * don\- *|* zel.|En la fuen- te|de~~a- gua cla\- * *|||
w: ||Con sus ma- nos|la- van la ca\- *|||
 C,16 | C4 C4 D4 D4 | E4 A,4 (B,2 (C4) B,2 | C6 B,A, G,8 | C,8 F,8) | C,16 | z16 | z16 | z16 | %29
w: ra,|En la fuen- te|de~~a- gua cla\- * *|||ra,||||
w: ra,|Con sus ma- nos|la- van la ca\- *|||ra,||||
 z8 A,4 F,2 F,2 | G,4 F,4 D,4 (E,4 | F,4) z4 z8 | F,4 F,4 G,4 G,4 | A,4 A,4 D,8 | z16 | z16 | z16 | %37
w: La- van la|ni- ña y~~el don-|zel,|En la fuen- te|del ro- sel||||
w: El a e-|lla y~~e- lla~~a él|||||||
 A,4 F,2 F,2 G,4 F,4 | D,4 E,4 F,4 z4 | A,4 F,2 F,2 G,4 F,4 | (D,4 E,4) (F,4 A,4 | G,8) C,16 |] %42
w: La- van la ni- ña|y~~el don- zel,|La- van la ni- ña|y~~el * don\- *|* zel.|
w: |||||

